assets/img/bg_royalbreakfast.svg

<?xml version="1.0" encoding="UTF-8" standalone="no"?>
<svg width="751px" height="335px" viewBox="0 0 751 335" version="1.1" xmlns="http://www.w3.org/2000/svg" xmlns:xlink="http://www.w3.org/1999/xlink" xmlns:sketch="http://www.bohemiancoding.com/sketch/ns">
    <!-- Generator: Sketch 3.2.2 (9983) - http://www.bohemiancoding.com/sketch -->
    <title>macuchino 3</title>
    <desc>Created with Sketch.</desc>
    <defs>
        <rect id="path-1" x="0" y="0" width="883" height="367"></rect>
        <path id="path-3" d="M664.886945,203.758951 C647.107518,58.614918 512.101191,-3.60960656 398.174437,10.4112131 C385.294586,11.9972787 372.600421,8.91819672 360.210106,5.84334426 C340.827028,1.03439344 322.186693,-3.77878689 304.736437,9.26078689 C271.823607,-4.54432787 247.384807,28.9660656 214.349593,33.030623 C100.422839,47.0514426 -15.5506804,140.159836 2.23296693,285.303869 C20.0123941,430.447902 144.227836,499.359279 264.484793,484.56023 C279.343887,482.733082 296.038739,490.426557 311.948647,498.115803 C333.37427,508.473869 353.381928,518.831934 365.586558,505.944623 C391.637449,522.575049 423.65139,464.977607 458.522362,460.684656 C578.779318,445.885607 682.670592,348.902984 664.886945,203.758951"></path>
    </defs>
    <g id="Blank-Project" stroke="none" stroke-width="1" fill="none" fill-rule="evenodd" sketch:type="MSPage">
        <g id="Producto-SuperShake-5" sketch:type="MSArtboardGroup" transform="translate(-293.000000, -211.000000)">
            <g id="macuchino-3" sketch:type="MSLayerGroup" transform="translate(161.000000, 179.000000)">
                <mask id="mask-2" sketch:name="Mask 2" fill="white">
                    <use xlink:href="#path-1"></use>
                </mask>
                <use id="Mask-2" sketch:type="MSShapeGroup" xlink:href="#path-1"></use>
                <g id="royalbreakfast" mask="url(#mask-2)">
                    <g transform="translate(132.000000, 32.012780)">
                        <path d="M664.886945,203.758951 C647.107518,58.614918 512.101191,-3.60960656 398.174437,10.4112131 C385.294586,11.9972787 372.600421,8.91819672 360.210106,5.84334426 C340.827028,1.03439344 322.186693,-3.77878689 304.736437,9.26078689 C271.823607,-4.54432787 247.384807,28.9660656 214.349593,33.030623 C100.422839,47.0514426 -15.5506804,140.159836 2.23296693,285.303869 C20.0123941,430.447902 144.227836,499.359279 264.484793,484.56023 C279.343887,482.733082 296.038739,490.426557 311.948647,498.115803 C333.37427,508.473869 353.381928,518.831934 365.586558,505.944623 C391.637449,522.575049 423.65139,464.977607 458.522362,460.684656 C578.779318,445.885607 682.670592,348.902984 664.886945,203.758951" id="shape" fill="#711610" sketch:type="MSShapeGroup"></path>
                        <g id="mascara" stroke-width="1" fill="none" sketch:type="MSLayerGroup">
                            <mask id="mask-4" sketch:name="Clip 44" fill="white">
                                <use xlink:href="#path-3"></use>
                            </mask>
                            <g id="Clip-44"></g>
                            <path d="M311.957087,311.425311 C228.309799,306.02 180.280447,283.535934 131.17074,283.535934 C96.2533461,283.535934 47.6964772,295.996066 6.25475522,309.221738 C4.58358191,301.494426 3.23735897,293.526033 2.23296693,285.303869 C0.996467484,275.241869 0.409868772,265.42941 0.414088907,255.874951 C0.519592272,127.627803 108.322931,46.0786557 214.349593,33.030623 C241.801569,29.6512459 263.315815,5.94485246 288.687265,5.94485246 C293.848489,5.94485246 299.174299,6.92609836 304.736437,9.26078689 C313.126064,2.98842623 321.790001,0.848295082 330.681824,0.848295082 C340.27841,0.848295082 350.145085,3.34793443 360.210106,5.84334426 C370.275127,8.34298361 380.538495,10.842623 390.945347,10.842623 C393.346603,10.842623 395.76052,10.7072787 398.174437,10.4112131 C408.61083,9.12544262 419.211808,8.48255738 429.897189,8.48255738 C535.839449,8.48255738 648.73649,71.9124918 664.886945,203.758951 C666.224728,214.675311 666.874629,225.316754 666.878849,235.67059 C666.891509,253.104623 665.076851,269.713902 661.658542,285.447672 C641.287952,282.783082 621.411118,277.077475 603.049313,271.376098 C577.87621,263.559967 555.560138,255.739607 538.772442,255.739607 C535.847889,255.739607 533.092141,255.976459 530.513639,256.492459 C492.026011,264.207082 404.736747,311.814426 324.334742,311.818656 C320.186349,311.818656 316.059058,311.69177 311.957087,311.425311 Z" id="Fill-43" fill="#9A5A56" sketch:type="MSShapeGroup" mask="url(#mask-4)"></path>
                        </g>
                        <path d="M471.798906,346.665574 L619.642882,121.389279 L715.959014,195.388754 L750.707603,149.963836 L630.028633,57.2403279 L588.793698,64.2274754 L424.081844,315.210721 L471.798906,346.665574" id="pajita" fill="#711610" sketch:type="MSShapeGroup"></path>
                    </g>
                </g>
            </g>
        </g>
    </g>
</svg>

<svg xmlns="http://www.w3.org/2000/svg" viewBox="0 0 751 512" xmlns:xlink="http://www.w3.org/1999/xlink">
  <title>
    Royal Breakfast
  </title>
  <defs>
    <path id="a" d="M398.174 10.424C385.294 12.01 372.6 8.93 360.21 5.856c-19.383-4.81-38.023-9.622-55.474 3.418-32.912-13.806-57.35 19.705-90.386 23.77-113.927 14.02-229.9 107.13-212.117 252.273 17.78 145.144 141.995 214.055 262.252 199.256 14.86-1.827 31.554 5.866 47.464 13.556 21.424 10.357 41.432 20.715 53.637 7.827 26.05 16.63 58.064-40.967 92.935-45.26 120.257-14.8 224.15-111.78 206.365-256.925C647.107 58.628 512.1-3.598 398.174 10.424z"/>
  </defs>
  <g fill="none" fill-rule="evenodd">
    <mask id="b" fill="#fff">
      <use xlink:href="#a"/>
    </mask>
    <use fill="#653B8A" xlink:href="#a"/>
    <path fill="#522E71" d="M131.17 283.55c-34.917 0-83.474 12.46-124.915 25.685-1.67-7.728-3.018-15.696-4.022-23.918C.996 275.255.41 265.442.413 255.887.52 127.642 108.324 46.092 214.35 33.044c27.452-3.38 48.966-27.085 74.337-27.085 5.16 0 10.487.98 16.05 3.316C313.126 3 321.79.86 330.68.86c9.596 0 19.463 2.5 29.528 4.996 10.065 2.5 20.328 5 30.735 5 2.402 0 4.816-.136 7.23-.432 10.436-1.286 21.037-1.93 31.722-1.93 105.942 0 218.84 63.43 234.99 195.278 1.338 10.916 1.988 21.558 1.992 31.91.012 17.435-1.803 34.045-5.22 49.778-20.372-2.664-40.25-8.37-58.61-14.07-25.174-7.817-47.49-15.638-64.278-15.638-2.924 0-5.68.237-8.258.753-38.488 7.715-125.777 55.322-206.18 55.326-4.148 0-8.275-.125-12.377-.392-83.647-5.405-131.677-27.89-180.786-27.89z" mask="url(#b)"/>
    <path fill="#653B8A" d="M471.8 346.678l147.843-225.276 96.316 74 34.748-45.425-120.68-92.724-41.234 6.987-164.712 250.984 47.717 31.454"/>
  </g>
</svg>
